static/img/RETN_sh.svg

<?xml version="1.0" encoding="UTF-8" standalone="no"?>
<!-- Created with Inkscape (http://www.inkscape.org/) -->

<svg
   width="69.874191mm"
   height="10mm"
   viewBox="0 0 69.874191 10"
   version="1.1"
   id="svg1"
   inkscape:version="1.3.2 (091e20e, 2023-11-25)"
   sodipodi:docname="RETN_sh.svg"
   xmlns:inkscape="http://www.inkscape.org/namespaces/inkscape"
   xmlns:sodipodi="http://sodipodi.sourceforge.net/DTD/sodipodi-0.dtd"
   xmlns="http://www.w3.org/2000/svg"
   xmlns:svg="http://www.w3.org/2000/svg">
  <sodipodi:namedview
     id="namedview1"
     pagecolor="#ffffff"
     bordercolor="#000000"
     borderopacity="0.25"
     inkscape:showpageshadow="2"
     inkscape:pageopacity="0.0"
     inkscape:pagecheckerboard="0"
     inkscape:deskcolor="#d1d1d1"
     inkscape:document-units="mm"
     inkscape:zoom="3.0464698"
     inkscape:cx="89.940167"
     inkscape:cy="23.141539"
     inkscape:window-width="1472"
     inkscape:window-height="828"
     inkscape:window-x="0"
     inkscape:window-y="38"
     inkscape:window-maximized="0"
     inkscape:current-layer="layer1" />
  <defs
     id="defs1">
    <clipPath
       id="D">
      <path
         d="M 0,454 H 2551.18 V 0 H 0 Z"
         transform="translate(-170.866,-125.406)"
         id="path1" />
    </clipPath>
    <clipPath
       id="N">
      <path
         d="M 0,454 H 2551.18 V 0 H 0 Z"
         transform="translate(-354.768,-217.429)"
         id="path6" />
    </clipPath>
    <clipPath
       id="P">
      <path
         d="M 0,454 H 2551.18 V 0 H 0 Z"
         transform="translate(-520.875,-252.42)"
         id="path7" />
    </clipPath>
    <clipPath
       id="R">
      <path
         d="M 0,454 H 2551.18 V 0 H 0 Z"
         transform="translate(-657.992,-150.645)"
         id="path8" />
    </clipPath>
    <clipPath
       id="T">
      <path
         d="M 0,454 H 2551.18 V 0 H 0 Z"
         transform="translate(-836.162,-149.152)"
         id="path9" />
    </clipPath>
    <clipPath
       id="V">
      <path
         d="M 0,454 H 2551.18 V 0 H 0 Z"
         transform="translate(-947.887,-238.979)"
         id="path10" />
    </clipPath>
    <clipPath
       id="X">
      <path
         d="M 0,454 H 2551.18 V 0 H 0 Z"
         id="path11" />
    </clipPath>
    <clipPath
       id="Z">
      <path
         d="M 0,454 H 2551.18 V 0 H 0 Z"
         transform="translate(-1063.84,-238.979)"
         id="path12" />
    </clipPath>
  </defs>
  <g
     inkscape:label="Capa 1"
     inkscape:groupmode="layer"
     id="layer1">
    <g
       id="g1"
       transform="matrix(3.4940579,0,0,3.4940579,-0.00350461,-12.470286)">
      <path
         id="path2-8"
         d="M 3.1620781,4.7187511 H 1.8728283 L 2.0031523,4.2322607 H 3.2939918 C 3.4260162,4.2329708 3.5038042,4.3417012 3.4677442,4.475729 3.4315865,4.6100988 3.294741,4.7189042 3.1620781,4.7187511 Z M 3.9057409,5.2807133 C 4.3245187,5.2811824 4.7670758,4.898432 4.8942467,4.4257988 5.0214175,3.9531624 4.7850244,3.5696237 4.366214,3.5691383 l -0.6555943,-7.49e-5 v -1.3e-5 H 2.1808234 0.76767319 L 0.00100302,6.4309237 H 1.414163 L 1.7222852,5.2807133 H 2.4814991 L 3.2712874,6.4309237 H 4.6844018 L 3.8946656,5.2807133 h 0.011075"
         style="fill:#23509f;fill-opacity:1;fill-rule:nonzero;stroke:none;stroke-width:0.00325745" />
      <path
         id="path3-7"
         d="M 17.244021,3.5690504 16.783939,5.2864269 15.436072,3.5690504 h -1.413147 l -0.766674,2.8618733 h 1.413147 l 0.458649,-1.7120456 1.349301,1.7120456 h 1.41318 l 0.76664,-2.8618733 h -1.413147"
         style="fill:#23509f;fill-opacity:1;fill-rule:nonzero;stroke:none;stroke-width:0.00325745" />
      <path
         id="path4-8"
         d="M 13.695388,3.5689982 H 5.9632115 c -0.27545,0 -0.5164687,0.1852447 -0.5873508,0.451411 L 4.9375382,5.6668221 C 4.8348308,6.052628 5.1256234,6.431 5.5248564,6.431 H 5.9356209 6.14729 8.8282691 L 9.0048228,5.7678291 H 6.5324183 c -0.1053134,0 -0.1819937,-0.099799 -0.1549243,-0.2015547 L 6.453425,5.2810814 H 9.1344368 L 9.284084,4.7188781 H 6.603105 L 6.700991,4.3512846 C 6.719689,4.2810836 6.783242,4.2322216 6.8558828,4.2322216 H 10.692443 L 10.107014,6.431 h 1.413212 l 0.585429,-2.1987784 h 1.413147 l 0.176586,-0.6632234"
         style="fill:#d70b8d;fill-opacity:1;fill-rule:nonzero;stroke:none;stroke-width:0.00325745" />
      <path
         id="path5-0"
         d="m 19.491825,3.6198731 c -0.251671,0 -0.456402,0.204747 -0.456402,0.4563981 0,0.2516901 0.204731,0.4564501 0.456402,0.4564501 0.25167,0 0.456434,-0.20476 0.456434,-0.4564501 0,-0.2516511 -0.204764,-0.4563981 -0.456434,-0.4563981 z m 0,0.9635928 c -0.279652,0 -0.507153,-0.2275133 -0.507153,-0.5071947 0,-0.2796456 0.227501,-0.5071589 0.507153,-0.5071589 0.279684,0 0.507185,0.2275133 0.507185,0.5071589 0,0.2796814 -0.227501,0.5071947 -0.507185,0.5071947"
         style="fill:#23509f;fill-opacity:1;fill-rule:nonzero;stroke:none;stroke-width:0.00325745" />
      <path
         id="path6-0"
         d="m 19.57489,4.031276 h -0.153556 l 0.0155,-0.05796 h 0.153784 c 0.01573,1.042e-4 0.02499,0.013043 0.02072,0.029014 -0.0043,0.016007 -0.02062,0.028959 -0.03645,0.028946 z m 0.0886,0.06697 c 0.0499,3.91e-5 0.102643,-0.045552 0.117757,-0.1018604 0.01518,-0.056305 -0.013,-0.1020103 -0.06287,-0.1020494 l -0.07815,-2.28e-5 v 0 H 19.458005 19.28966 l -0.09134,0.3409475 h 0.168345 l 0.03671,-0.1370149 h 0.09043 l 0.09411,0.1370149 H 19.75626 L 19.66218,4.098246 h 0.0013"
         style="fill:#23509f;fill-opacity:1;fill-rule:nonzero;stroke:none;stroke-width:0.00325745" />
    </g>
  </g>
</svg>

<?xml version="1.0" encoding="UTF-8"?>
<!-- Created with Inkscape (http://www.inkscape.org/) -->
<svg width="69.874mm" height="10mm" version="1.1" viewBox="0 0 69.874 10" xmlns="http://www.w3.org/2000/svg"><g transform="matrix(3.4941 0 0 3.4941 -.0035046 -12.47)"><path d="m3.1621 4.7188h-1.2892l0.13032-0.48649h1.2908c0.13202 7.101e-4 0.20981 0.10944 0.17375 0.24347-0.036158 0.13437-0.173 0.24318-0.30567 0.24302zm0.74366 0.56196c0.41878 4.691e-4 0.86133-0.38228 0.98851-0.85491 0.12717-0.47264-0.10922-0.85618-0.52803-0.85666l-0.65559-7.49e-5v-1.3e-5h-2.9429l-0.76667 2.8619h1.4132l0.30812-1.1502h0.75921l0.78979 1.1502h1.4131l-0.78974-1.1502h0.011075" fill="#23509f"/><path d="m17.244 3.5691-0.46008 1.7174-1.3479-1.7174h-1.4131l-0.76667 2.8619h1.4131l0.45865-1.712 1.3493 1.712h1.4132l0.76664-2.8619h-1.4131" fill="#23509f"/><path d="m13.695 3.569h-7.7322c-0.27545 0-0.51647 0.18524-0.58735 0.45141l-0.43832 1.6464c-0.10271 0.38581 0.18809 0.76418 0.58732 0.76418h3.3034l0.17655-0.66317h-2.4724c-0.10531 0-0.18199-0.099799-0.15492-0.20155l0.075931-0.28519h2.681l0.14965-0.5622h-2.681l0.097886-0.36759c0.018698-0.070201 0.082251-0.11906 0.15489-0.11906h3.8366l-0.58543 2.1988h1.4132l0.58543-2.1988h1.4131l0.17659-0.66322" fill="#d70b8d"/><path d="m19.492 3.6199c-0.25167 0-0.4564 0.20475-0.4564 0.4564 0 0.25169 0.20473 0.45645 0.4564 0.45645 0.25167 0 0.45643-0.20476 0.45643-0.45645 0-0.25165-0.20476-0.4564-0.45643-0.4564zm0 0.96359c-0.27965 0-0.50715-0.22751-0.50715-0.50719 0-0.27965 0.2275-0.50716 0.50715-0.50716 0.27968 0 0.50718 0.22751 0.50718 0.50716 0 0.27968-0.2275 0.50719-0.50718 0.50719" fill="#23509f"/><path d="m19.575 4.0313h-0.15356l0.0155-0.05796h0.15378c0.01573 1.042e-4 0.02499 0.013043 0.02072 0.029014-0.0043 0.016007-0.02062 0.028959-0.03645 0.028946zm0.0886 0.06697c0.0499 3.91e-5 0.10264-0.045552 0.11776-0.10186 0.01518-0.056305-0.013-0.10201-0.06287-0.10205l-0.07815-2.28e-5h-0.35057l-0.09134 0.34095h0.16834l0.03671-0.13701h0.09043l0.09411 0.13701h0.16834l-0.09408-0.13701h0.0013" fill="#23509f"/></g></svg>
